src/Pure/16/symbolic/actions/pane-hide-symbolic.svg

<?xml version="1.0" encoding="UTF-8" standalone="no"?>
<svg
   width="16"
   height="16"
   enable-background="new"
   version="1.1"
   id="svg2"
   sodipodi:docname="pane-hide-symbolic.svg"
   inkscape:version="1.4.2 (ebf0e940d0, 2025-05-08)"
   xmlns:inkscape="http://www.inkscape.org/namespaces/inkscape"
   xmlns:sodipodi="http://sodipodi.sourceforge.net/DTD/sodipodi-0.dtd"
   xmlns="http://www.w3.org/2000/svg"
   xmlns:svg="http://www.w3.org/2000/svg">
  <defs
     id="defs2">
     <style
        id="current-color-scheme"
        type="text/css">
        .ColorScheme-Text { color:#363636; }
     </style>
  </defs>
  <sodipodi:namedview
     id="namedview2"
     pagecolor="#ffffff"
     bordercolor="#000000"
     borderopacity="0.25"
     inkscape:showpageshadow="2"
     inkscape:pageopacity="0.0"
     inkscape:pagecheckerboard="0"
     inkscape:deskcolor="#d1d1d1"
     inkscape:zoom="49.6875"
     inkscape:cx="8"
     inkscape:cy="8"
     inkscape:window-width="1920"
     inkscape:window-height="1010"
     inkscape:window-x="0"
     inkscape:window-y="0"
     inkscape:window-maximized="1"
     inkscape:current-layer="svg2" />
  <path
     id="path1"
     style="fill:currentColor"
     class="ColorScheme-Text"
     d="M 4 1 C 2.892 1 2 1.892 2 3 L 2 13 C 2 14.108 2.892 15 4 15 L 12 15 C 13.108 15 14 14.108 14 13 L 14 3 C 14 1.892 13.108 1 12 1 L 4 1 z M 4 2 L 12 2 C 12.554 2 13 2.446 13 3 L 13 13 C 13 13.554 12.554 14 12 14 L 4 14 C 3.446 14 3 13.554 3 13 L 3 3 C 3 2.446 3.446 2 4 2 z " />
  <path
     id="path2"
     style="fill:currentColor"
     class="ColorScheme-Text"
     d="M 6.7578125 3.7578125 L 6.0507812 4.4648438 L 9.5859375 8 L 6.0507812 11.535156 L 6.7578125 12.242188 L 11 8 L 6.7578125 3.7578125 z " />
</svg>

<svg width="16" height="16" enable-background="new" version="1.1" xmlns="http://www.w3.org/2000/svg">
 <path d="m4 1c-1.108 0-2 0.892-2 2v10c0 1.108 0.892 2 2 2h8c1.108 0 2-0.892 2-2v-10c0-1.108-0.892-2-2-2zm0 1h8c0.554 0 1 0.446 1 1v10c0 0.554-0.446 1-1 1h-8c-0.554 0-1-0.446-1-1v-10c0-0.554 0.446-1 1-1z" fill="#363636"/>
 <path d="m6.7578 3.7578-0.70703 0.70703 3.5352 3.5352-3.5352 3.5352 0.70703 0.70703 4.2422-4.2422-0.70703-0.70703z" fill="#363636"/>
</svg>
